X:1
T:Title
%%score { ( 1 4 ) | ( 2 3 ) }
L:1/8
M:9/8
K:E
V:1 treble nm="Grand Piano"
V:4 treble 
V:2 bass 
V:3 bass 
V:1
 z3 z3[Q:1/4=107] E2 F | G3- G2 G GFE | G [GB]2- [GB]3 [GB]2 [GB] | [Ac]3- [Ac]2 [Ac] [GB]2 [EG] | %4
[M:3/4] [DF]6 |[M:3/8] [DB]2 [DA] |[M:9/8] G3- G2 G GFE | G [GB]2- [GB]3 ce[EAc] | %8
 [EGB]3- [EGB]2 [EG] [B,DG]2 [A,DF] |[M:3/4] [G,E]6 |[M:3/8] z3 |[M:9/8] e6 z3 | [EAc]3 [EGB]3 z3 | %13
 e6 z3 | [DF]6 [DB]2 [DA] | [EG]3 [GB]3 e2 d | c3 e3 E2 F | %17
 G6 z3[Q:1/4=105][Q:1/4=103][Q:1/4=102][Q:1/4=100][Q:1/4=98][Q:1/4=97][Q:1/4=95][Q:1/4=93][Q:1/4=92][Q:1/4=90][Q:1/4=88][Q:1/4=87][Q:1/4=85][Q:1/4=83][Q:1/4=82] | %18
[M:3/4] [G,B,E]6 |] %19
V:2
 z3 z3 [E,G,B,]2 [E,A,B,] | z3 z3 .B,3 | [E,B,E] [E,E]2- [E,E]3 [E,E]2 [E,E] | %3
 [A,E]3- [A,E]2 [A,E] [E,E]2 [E,B,] |[M:3/4] [B,,B,]6 |[M:3/8] [B,,B,]2 [B,,B,] | %6
[M:9/8] z3 z3 .B,3 | z3 z3[K:treble] .E3 | B,3- B,2[K:bass] B, B,,2 B,, |[M:3/4] E,6 | %10
[M:3/8][K:treble] Bcd |[M:9/8][K:bass] [E,B,][E,B,][E,B,] [E,B,]2 [E,E] [E,E][E,E]E, | %12
 A,3 E,3[K:treble] Bcd | [E,B,][E,B,][E,B,] [E,B,]2 [E,E] [E,B,][E,B,][E,B,] | %14
 [B,,B,]6 [B,,B,]2 [B,,B,] | [E,B,]3 [E,E]3 [G,B,E]2 [G,B,E] | [A,E]3 [A,CE]3 z3 | %17
 [B,,B,]2 [B,,B,] [B,,B,]2 [B,,B,] [B,,B,]2 [B,,A,] |[M:3/4] [E,,E,]6 |] %19
V:3
 x9 | [E,B,E]3- [E,B,E]2 [E,B,E] [E,E]-[E,A,E][E,G,] | x9 | x9 |[M:3/4] x6 |[M:3/8] x3 | %6
[M:9/8] [E,B,E]3- [E,B,E]2 [E,B,E] [E,E]-[E,A,E][E,G,] | %7
 [E,B,E] [E,E]2- [E,E]3[K:treble] [A,A]-[A,CA]A, | x5[K:bass] x4 |[M:3/4] x6 | %10
[M:3/8][K:treble] x3 |[M:9/8][K:bass] x9 | x6[K:treble] x3 | x9 | x9 | x9 | x9 | x9 |[M:3/4] x6 |] %19
V:4
 x9 | x9 | x9 | x9 |[M:3/4] x6 |[M:3/8] x3 |[M:9/8] x9 | x9 | x9 |[M:3/4] x6 |[M:3/8] x3 | %11
[M:9/8] GGG G2 [GB] [GB][FA][EG] | x9 | GGG G2 [GB] [GB][FA][EG] | x9 | x9 | x9 | %17
 E2 E E2 [EG] [DA]2 [DF] |[M:3/4] x6 |] %19

